src/lib/packages/icons/src/assets/filled/comment-times-alt.svg

<svg width="24" height="24" viewBox="0 0 24 24" fill="none" xmlns="http://www.w3.org/2000/svg">
<path d="M12 4C7.03 4 3 6.99998 3 12.001C3 14.121 3.72995 15.892 4.94995 17.212C4.79995 18.172 4.25992 19.272 3.16992 20.152C2.83992 20.432 3.02996 20.9819 3.45996 20.9919C4.87996 21.0419 7.06991 20.852 8.40991 19.422C9.50991 19.802 10.72 20.002 12 20.002C16.97 20.002 21 17.001 21 12.001C21 6.99998 16.97 4 12 4ZM15.03 13.97C15.323 14.263 15.323 14.738 15.03 15.031C14.884 15.177 14.692 15.251 14.5 15.251C14.308 15.251 14.116 15.178 13.97 15.031L12 13.061L10.03 15.031C9.88403 15.177 9.692 15.251 9.5 15.251C9.308 15.251 9.11597 15.178 8.96997 15.031C8.67697 14.738 8.67697 14.263 8.96997 13.97L10.9399 12L8.96997 10.03C8.67697 9.73703 8.67697 9.26199 8.96997 8.96899C9.26297 8.67599 9.73801 8.67599 10.031 8.96899L12.001 10.939L13.9709 8.96899C14.2639 8.67599 14.739 8.67599 15.032 8.96899C15.325 9.26199 15.325 9.73703 15.032 10.03L13.062 12L15.03 13.97Z" fill="currentColor"/>
</svg>

<svg xmlns="http://www.w3.org/2000/svg" width="24" height="24" fill="none"><path fill="currentColor" d="M12 4c-4.97 0-9 3-9 8.001 0 2.12.73 3.891 1.95 5.211-.15.96-.69 2.06-1.78 2.94-.33.28-.14.83.29.84 1.42.05 3.61-.14 4.95-1.57 1.1.38 2.31.58 3.59.58 4.97 0 9-3.001 9-8.001C21 7 16.97 4 12 4Zm3.03 9.97a.75.75 0 0 1-1.06 1.061L12 13.061l-1.97 1.97a.748.748 0 0 1-1.06 0 .75.75 0 0 1 0-1.061L10.94 12l-1.97-1.97a.75.75 0 1 1 1.061-1.061l1.97 1.97 1.97-1.97a.75.75 0 0 1 1.061 1.061L13.062 12l1.968 1.97Z"/></svg>
